svgs/regular/image-polaroid.svg

<svg xmlns="http://www.w3.org/2000/svg" viewBox="0 0 448 512"><!--! Font Awesome Pro 6.6.0 by @fontawesome - https://fontawesome.com License - https://fontawesome.com/license (Commercial License) Copyright 2024 Fonticons, Inc. --><path d="M400 368l0 48c0 8.8-7.2 16-16 16L64 432c-8.8 0-16-7.2-16-16l0-48 352 0zM75.3 320L48 320 48 96c0-8.8 7.2-16 16-16l320 0c8.8 0 16 7.2 16 16l0 224-23.6 0L284.1 178.9c-4.4-6.8-12-10.9-20.1-10.9s-15.7 4.1-20.1 10.9l-56 85.6-16.6-22.6c-4.5-6.2-11.7-9.8-19.4-9.8s-14.8 3.6-19.4 9.8L75.3 320zM448 320l0-224c0-35.3-28.7-64-64-64L64 32C28.7 32 0 60.7 0 96L0 320l0 24 0 24 0 48c0 35.3 28.7 64 64 64l320 0c35.3 0 64-28.7 64-64l0-48 0-24 0-24zM144 144a32 32 0 1 0 -64 0 32 32 0 1 0 64 0z"/></svg>

<svg xmlns="http://www.w3.org/2000/svg" viewBox="0 0 448 512"><!--! Font Awesome Pro 6.4.0 by @fontawesome - https://fontawesome.com License - https://fontawesome.com/license (Commercial License) Copyright 2023 Fonticons, Inc. --><path d="M400 368v48c0 8.8-7.2 16-16 16H64c-8.8 0-16-7.2-16-16V368H400zM75.3 320H48V96c0-8.8 7.2-16 16-16H384c8.8 0 16 7.2 16 16V320H376.4L284.1 178.9c-4.4-6.8-12-10.9-20.1-10.9s-15.7 4.1-20.1 10.9l-56 85.6-16.6-22.6c-4.5-6.2-11.7-9.8-19.4-9.8s-14.8 3.6-19.4 9.8L75.3 320zM448 320V96c0-35.3-28.7-64-64-64H64C28.7 32 0 60.7 0 96V320v24 24 48c0 35.3 28.7 64 64 64H384c35.3 0 64-28.7 64-64V368 344 320zM144 144a32 32 0 1 0 -64 0 32 32 0 1 0 64 0z"/></svg>
